resources/address.svg

<svg width="24" height="24" viewBox="0 0 24 24" fill="none" xmlns="http://www.w3.org/2000/svg">
    <path d="M4 7.5V7C4 5.34315 5.34315 4 7 4H17C18.6569 4 20 5.34315 20 7V17C20 18.6569 18.6569 20 17 20H7C5.34315 20 4 18.6569 4 17V16.5"
          stroke="#C4C4C4" stroke-width="2" stroke-linecap="round"/>
    <path d="M4 12H15M15 12L11.6364 9M15 12L11.6364 15" stroke="#C4C4C4" stroke-width="2" stroke-linecap="round"
          stroke-linejoin="round"/>
</svg>

<svg width="24" height="24" fill="none" xmlns="http://www.w3.org/2000/svg"><path d="M4 7.5V7a3 3 0 0 1 3-3h10a3 3 0 0 1 3 3v10a3 3 0 0 1-3 3H7a3 3 0 0 1-3-3v-.5" stroke="#C4C4C4" stroke-width="2" stroke-linecap="round"/><path d="M4 12h11m0 0-3.364-3M15 12l-3.364 3" stroke="#C4C4C4" stroke-width="2" stroke-linecap="round" stroke-linejoin="round"/></svg>
